X:955
T:Merrily Danced the Quaker
A:Wyresdale, Lancashire
B:E and J Winder, 1835-41
L:1/8
M:6/8
O:England
Z:Richard Robinson 
%%TranscriptionNotes:Some guesswork here owing to imperfect legibility
%%TUNEURL: http://www.leeds.ac.uk/music/Info/RRTuneBk/gettune/00001102.html
%%ID:00001102
K:G
GAB D2B | c2B      A2G |   GAB D2D | E3 G3 ::
dcB edc | dcB      ABc | ! dcB efg | B3 d3 | \
dcB efg | (f/g/aB) A2G |   Bcd D2D | E3 G3 ::
